X: 18291
T: Humours Of Tralee, The
R: jig
M: 6/8
K: Aminor
~A3 AGE|GAB c2 d|(3e/f/g e dBA|~G3 GEG|
ADD AGE|GAB c2 d|(3e/f/g e dcB|A2 B c2 B|
~A3 AGE|GAB c2 d|(3e/f/g e dBA|~G3 GEG|
ABG AGE|GAB c2 d|(3e/f/g e dcB|~A3 (3B/c/d||
~e3 edB|~d3 dBd|(3e/f/g e dBA|~G3 GEG|
~A3 AGE|GAB c2 d|(3e/f/g e dcB|~A3 (3B/c/d|
~e3 edB|~d3 ~g3|ege dBA|~G3 GEG|
ABG AGE|GAB c2 d|(3e/f/g e dcB|A2 B c2 B||

